Papirus/24x24/panel/teamviewer-indicator-away.svg

<?xml version="1.0" encoding="UTF-8" standalone="no"?>
<svg xmlns:dc="http://purl.org/dc/elements/1.1/" xmlns:cc="http://creativecommons.org/ns#" xmlns:rdf="http://www.w3.org/1999/02/22-rdf-syntax-ns#" xmlns:svg="http://www.w3.org/2000/svg" xmlns="http://www.w3.org/2000/svg" version="1.1" id="svg2" height="24" viewBox="0 0 6.7733335 6.7733335" width="24">
    <metadata id="metadata16">
        <rdf:RDF>
            <cc:Work rdf:about="">
                <dc:format>
                    image/svg+xml
                </dc:format>
                <dc:type rdf:resource="http://purl.org/dc/dcmitype/StillImage"/>
                <dc:title/>
            </cc:Work>
        </rdf:RDF>
    </metadata>
    <path style="opacity:1;fill:#ffffff;fill-opacity:1;stroke:none;stroke-width:2;stroke-linecap:round;stroke-linejoin:round;stroke-miterlimit:4;stroke-dasharray:none;stroke-opacity:1" d="M 3.1044445,0.84581137 A 2.2577776,2.2577776 0 0 1 5.3622222,3.103589 2.2577776,2.2577776 0 0 1 5.3236371,3.5125908 L 5.2211111,3.4100649 5.0215712,3.2105247 4.2234115,4.0086844 l 0.2237934,0.2237935 -1.0605382,0 0,1.1090453 A 2.2577776,2.2577776 0 0 1 3.1044445,5.3613668 2.2577776,2.2577776 0 0 1 0.84666667,3.103589 2.2577776,2.2577776 0 0 1 3.1044445,0.84581137 Z m 0.5644444,1.41111103 0,0.5638932 -1.1288889,0 0,-0.5638932 L 1.6933334,3.103589 2.54,3.9502557 l 0,-0.5638933 1.1288889,0 0,0.5638933 L 4.5155556,3.103589 3.6688889,2.2569224 Z M 5.0215712,3.6096047 6.2088889,4.7969223 5.0215712,5.98424 4.6224913,5.5851603 5.1285069,5.0791446 l -1.459618,0 0,-0.5644445 1.459618,0 L 4.6224913,4.0086844 5.0215712,3.6096047 Z" id="path4144"/>
    <g transform="matrix(0.28222222,0,0,0.28222222,-4.0521466,-1.8190454)" id="g4146" style="fill:none;fill-opacity:1">
        <path d="m 30.565,21.238 1.414,1.414 -1.793,1.793 5.172,0 0,2 -5.172,0 1.793,1.793 -1.414,1.414 -4.207,-4.207 z" style="opacity:1;fill:none;fill-opacity:1;fill-rule:nonzero;stroke:none" id="path4148"/>
    </g>
</svg>

<?xml version="1.0" encoding="UTF-8" standalone="no"?>
<svg id="svg2" xmlns:rdf="http://www.w3.org/1999/02/22-rdf-syntax-ns#" xmlns="http://www.w3.org/2000/svg" height="24" viewBox="0 0 6.7733335 6.7733335" width="24" version="1.1" xmlns:cc="http://creativecommons.org/ns#" xmlns:dc="http://purl.org/dc/elements/1.1/">
 <metadata id="metadata16">
  <rdf:RDF>
   <cc:Work rdf:about="">
    <dc:format>image/svg+xml</dc:format>
    <dc:type rdf:resource="http://purl.org/dc/dcmitype/StillImage"/>
    <dc:title/>
   </cc:Work>
  </rdf:RDF>
 </metadata>
 <path id="path4144" d="m3.1044 0.84581a2.2578 2.2578 0 0 1 2.2578 2.2578 2.2578 2.2578 0 0 1 -0.0386 0.409l-0.1025-0.1025-0.1995-0.1996-0.7982 0.7982 0.22379 0.22379h-1.0605v1.109a2.2578 2.2578 0 0 1 -0.2823 0.0199 2.2578 2.2578 0 0 1 -2.2577 -2.2578 2.2578 2.2578 0 0 1 2.2577 -2.2578zm0.56444 1.4111v0.56389h-1.1289v-0.56389l-0.8466 0.8467 0.8467 0.8467v-0.56389h1.1289v0.56389l0.8467-0.8467-0.8467-0.8467zm1.3528 1.3527 1.1873 1.1873-1.1873 1.1873-0.3991-0.399 0.506-0.5061h-1.4596v-0.56444h1.4596l-0.506-0.506 0.3991-0.3991z" fill="#fff"/>
 <g id="g4146" fill="none" transform="matrix(.28222 0 0 .28222 -4.0521 -1.819)">
  <path id="path4148" fill="none" d="m30.565 21.238 1.414 1.414-1.793 1.793h5.172v2h-5.172l1.793 1.793-1.414 1.414-4.207-4.207z"/>
 </g>
</svg>
